X: 6
T: The Trip To Sligo
R: jig
M: 6/8
L: 1/8
K: Emin
E2e BGE | D2d AFD | E2e BGE | BAG e2f |
gfe d^cB | ABG FED | EFG ABc | BGF E3 :|
e| eBe gfe | dAd fed | eBe gfe | faf gfe |
faf gfe | d^cB AFD | EFG ABc | BGF E3 :|


Tune 397	Setting 13237

